Newaita-dark/apps/24/com.github.rkoesters.xkcd-gtk.svg

<svg height="24" viewBox="0 0 24 24" width="24" xmlns="http://www.w3.org/2000/svg" xmlns:xlink="http://www.w3.org/1999/xlink"><linearGradient id="a"><stop offset="0" stop-opacity=".313726"/><stop offset=".222222" stop-opacity=".27451"/><stop offset="1" stop-opacity="0"/></linearGradient><radialGradient id="b" cx="450.908936" cy="189.579361" gradientTransform="matrix(.00000013 -.0585994 -.105479 -.00000008 33.392364 47.696497)" gradientUnits="userSpaceOnUse" r="21.166656" xlink:href="#a"/><radialGradient id="c" cx="450.908936" cy="189.579361" gradientTransform="matrix(-.00000013 .0585994 .105479 .00000008 -9.577589 -5.645612)" gradientUnits="userSpaceOnUse" r="21.166656" xlink:href="#a"/><radialGradient id="d" cx="450.908936" cy="189.579361" gradientTransform="matrix(-.00000013 -.0585994 .105479 -.00000008 -9.577589 47.696497)" gradientUnits="userSpaceOnUse" r="21.166656" xlink:href="#a"/><radialGradient id="e" cx="450.908936" cy="189.579361" gradientTransform="matrix(.00000013 .0585994 -.105479 .00000008 33.392362 -5.645612)" gradientUnits="userSpaceOnUse" r="21.166656" xlink:href="#a"/><linearGradient id="f" gradientTransform="matrix(.01002 0 0 .0468795 9.34904 10.079088)" gradientUnits="userSpaceOnUse" x1="255.323059" x2="255.323044" y1="233.5" y2="254.666656"><stop offset="0" stop-opacity=".27451"/><stop offset="1" stop-opacity="0"/></linearGradient><linearGradient id="g" gradientUnits="userSpaceOnUse" x1="13.89195900005" x2="13.89195900005" y1="21.02545025" y2="2.17207774998"><stop offset="0" stop-color="#bdbdbd"/><stop offset="1" stop-color="#e0e0e0"/></linearGradient><linearGradient id="h" gradientTransform="matrix(.0107418 -.00620176 .00620176 .0107418 -4.416548 7.077972)" gradientUnits="userSpaceOnUse" x1="960" x2="960" y1="1695.118164" y2="175.118134"><stop offset="0" stop-color="#424242"/><stop offset="1" stop-color="#616161"/></linearGradient><path d="m13.644531 21.027344h1.984375v-.996094h-1.984375zm0 0" fill="url(#b)"/><path d="m10.171875 21.027344h-1.984375v.992187h1.984375zm0 0" fill="url(#c)"/><path d="m10.171875 21.027344h-1.984375v-.996094h1.984375zm0 0" fill="url(#d)"/><path d="m13.644531 21.027344h1.984375v.992187h-1.984375zm0 0" fill="url(#e)"/><path d="m10.171875 20.777344h3.472656v1.242187h-3.472656zm0 0" fill="url(#f)"/><path d="m11.90625 2.171875c5.207031 0 9.429688 4.21875 9.429688 9.425781 0 5.207032-4.222657 9.429688-9.429688 9.429688-5.203125 0-9.425781-4.222656-9.425781-9.429688 0-5.207031 4.222656-9.425781 9.425781-9.425781zm0 0" fill="url(#g)"/><path d="m11.90625 21.027344c-5.222656 0-9.425781-4.207032-9.425781-9.429688 0-.03125 0-.058594 0-.089844.050781 5.179688 4.234375 9.332032 9.425781 9.332032s9.378906-4.152344 9.425781-9.332032c0 .03125.003907.058594.003907.089844 0 5.222656-4.207032 9.429688-9.429688 9.429688zm0 0" fill-opacity=".196078"/><path d="m11.90625 2.171875c-5.222656 0-9.425781 4.203125-9.425781 9.425781v.09375c.050781-5.179687 4.234375-9.335937 9.425781-9.335937s9.378906 4.15625 9.425781 9.335937c0-.03125.003907-.0625.003907-.09375 0-5.222656-4.207032-9.425781-9.429688-9.425781zm0 0" fill="#fff" fill-opacity=".392157"/><path d="m11.90625 2.101562c-5.257812 0-9.496094 4.238282-9.496094 9.496094 0 5.261719 4.238282 9.5 9.496094 9.5 5.261719 0 9.5-4.238281 9.5-9.5 0-5.257812-4.238281-9.496094-9.5-9.496094zm0 .140626c5.1875 0 9.359375 4.171874 9.359375 9.355468 0 5.1875-4.171875 9.359375-9.359375 9.359375-5.183594 0-9.355469-4.171875-9.355469-9.359375 0-5.183594 4.171875-9.355468 9.355469-9.355468zm0 0" fill="#212121"/><path d="m7.875 10.507812c-.472656.277344-.636719.878907-.363281 1.355469l.992187 1.71875-2.148437 1.242188c-.234375.136719-.316407.4375-.179688.675781s.441407.320312.675781.183594l3.007813-1.738282 5.15625-2.976562 3.007813-1.734375c.238281-.136719.320312-.441406.183593-.679687-.136719-.238282-.441406-.316407-.679687-.179688l-2.148438 1.238281-.992187-1.71875c-.273438-.476562-.878907-.636719-1.355469-.363281zm0 0" fill="url(#h)"/><path d="m13.550781 7.398438c-.175781-.003907-.355469.039062-.519531.132812l-5.15625 2.976562c-.375.21875-.554688.644532-.476562 1.050782.054687-.269532.21875-.519532.476562-.667969l5.15625-2.976563c.476562-.277343 1.082031-.113281 1.355469.363282l.992187 1.71875 2.148438-1.242188c.238281-.136718.542968-.054687.679687.183594.011719.019531.019531.039062.027344.058594.058594-.140625.054687-.300782-.027344-.441406-.136719-.238282-.441406-.316407-.679687-.179688l-2.148438 1.238281-.992187-1.71875c-.179688-.3125-.5-.488281-.835938-.496093zm-5.210937 6.28125-1.984375 1.144531c-.21875.125-.304688.390625-.207031.617187.039062-.09375.109374-.179687.207031-.238281l2.148437-1.238281zm0 0" fill="#fff" fill-opacity=".235294"/><path d="m18.160156 9.117188c-.035156.046874-.082031.085937-.136718.117187l-3.007813 1.734375-5.15625 2.976562-3.007813 1.738282c-.210937.125-.480468.070312-.628906-.117188-.128906.15625-.152344.378906-.046875.5625.136719.238282.441407.320313.675781.183594l3.007813-1.738281 5.15625-2.976563 3.007813-1.734375c.238281-.136719.320312-.441406.183593-.679687-.015625-.023438-.03125-.042969-.046875-.066406zm-10.730468 2.566406c-.085938.257812-.066407.554687.082031.808594l.722656 1.25.269531-.160157-.992187-1.71875c-.03125-.058593-.058594-.117187-.082031-.179687zm0 0" fill-opacity=".235294"/><path d="m167.983958 9.145262c-10.08237 5.916102-13.582036 18.748209-7.74926 28.913905l21.164646 36.663166-45.828957 26.49747c-4.999523 2.916388-6.749355 9.332442-3.832967 14.41529s9.415767 6.83268 14.41529 3.916292l64.160539-37.079792 109.989497-63.493937 64.16054-36.996467c5.082848-2.916388 6.83268-9.415767 3.916292-14.498615s-9.415767-6.749356-14.498615-3.832968l-45.828957 26.414145-21.164646-36.663166c-5.832776-10.165696-18.748209-13.582036-28.913905-7.74926zm0 0" fill="none" stroke="#212121" stroke-linecap="round" stroke-linejoin="round" stroke-width="3" transform="matrix(.0468795 0 0 .0468795 0 10.079087)"/></svg>

<?xml version="1.0" encoding="UTF-8"?>
<svg xmlns="http://www.w3.org/2000/svg" xmlns:xlink="http://www.w3.org/1999/xlink" width="24px" height="24px" viewBox="0 0 24 24" version="1.1">
<defs>
<radialGradient id="radial0" gradientUnits="userSpaceOnUse" cx="450.908936" cy="189.579361" fx="450.908936" fy="189.579361" r="21.166656" gradientTransform="matrix(0.000000130628,-0.0585994,-0.105479,-0.0000000761539,33.392364,47.696497)">
<stop offset="0" style="stop-color:rgb(0%,0%,0%);stop-opacity:0.313726;"/>
<stop offset="0.222222" style="stop-color:rgb(0%,0%,0%);stop-opacity:0.27451;"/>
<stop offset="1" style="stop-color:rgb(0%,0%,0%);stop-opacity:0;"/>
</radialGradient>
<radialGradient id="radial1" gradientUnits="userSpaceOnUse" cx="450.908936" cy="189.579361" fx="450.908936" fy="189.579361" r="21.166656" gradientTransform="matrix(-0.000000130628,0.0585994,0.105479,0.0000000761539,-9.577589,-5.645612)">
<stop offset="0" style="stop-color:rgb(0%,0%,0%);stop-opacity:0.313726;"/>
<stop offset="0.222222" style="stop-color:rgb(0%,0%,0%);stop-opacity:0.27451;"/>
<stop offset="1" style="stop-color:rgb(0%,0%,0%);stop-opacity:0;"/>
</radialGradient>
<radialGradient id="radial2" gradientUnits="userSpaceOnUse" cx="450.908936" cy="189.579361" fx="450.908936" fy="189.579361" r="21.166656" gradientTransform="matrix(-0.000000130628,-0.0585994,0.105479,-0.0000000761539,-9.577589,47.696497)">
<stop offset="0" style="stop-color:rgb(0%,0%,0%);stop-opacity:0.313726;"/>
<stop offset="0.222222" style="stop-color:rgb(0%,0%,0%);stop-opacity:0.27451;"/>
<stop offset="1" style="stop-color:rgb(0%,0%,0%);stop-opacity:0;"/>
</radialGradient>
<radialGradient id="radial3" gradientUnits="userSpaceOnUse" cx="450.908936" cy="189.579361" fx="450.908936" fy="189.579361" r="21.166656" gradientTransform="matrix(0.000000130628,0.0585994,-0.105479,0.0000000761539,33.392362,-5.645612)">
<stop offset="0" style="stop-color:rgb(0%,0%,0%);stop-opacity:0.313726;"/>
<stop offset="0.222222" style="stop-color:rgb(0%,0%,0%);stop-opacity:0.27451;"/>
<stop offset="1" style="stop-color:rgb(0%,0%,0%);stop-opacity:0;"/>
</radialGradient>
<linearGradient id="linear0" gradientUnits="userSpaceOnUse" x1="255.323059" y1="233.5" x2="255.323044" y2="254.666656" gradientTransform="matrix(0.01002,0,0,0.0468795,9.34904,10.079088)">
<stop offset="0" style="stop-color:rgb(0%,0%,0%);stop-opacity:0.27451;"/>
<stop offset="1" style="stop-color:rgb(0%,0%,0%);stop-opacity:0;"/>
</linearGradient>
<linearGradient id="linear1" gradientUnits="userSpaceOnUse" x1="296.333344" y1="233.5" x2="296.333344" y2="-168.666672" gradientTransform="matrix(0.0468795,0,0,0.0468795,0,10.079087)">
<stop offset="0" style="stop-color:rgb(74.117649%,74.117649%,74.117649%);stop-opacity:1;"/>
<stop offset="1" style="stop-color:rgb(87.843138%,87.843138%,87.843138%);stop-opacity:1;"/>
</linearGradient>
<linearGradient id="linear2" gradientUnits="userSpaceOnUse" x1="960" y1="1695.118164" x2="960" y2="175.118134" gradientTransform="matrix(0.0107418,-0.00620176,0.00620176,0.0107418,-4.416548,7.077972)">
<stop offset="0" style="stop-color:rgb(25.882354%,25.882354%,25.882354%);stop-opacity:1;"/>
<stop offset="1" style="stop-color:rgb(38.039216%,38.039216%,38.039216%);stop-opacity:1;"/>
</linearGradient>
</defs>
<g id="surface1">
<path style=" stroke:none;fill-rule:nonzero;fill:url(#radial0);" d="M 13.644531 21.027344 L 15.628906 21.027344 L 15.628906 20.03125 L 13.644531 20.03125 Z M 13.644531 21.027344 "/>
<path style=" stroke:none;fill-rule:nonzero;fill:url(#radial1);" d="M 10.171875 21.027344 L 8.1875 21.027344 L 8.1875 22.019531 L 10.171875 22.019531 Z M 10.171875 21.027344 "/>
<path style=" stroke:none;fill-rule:nonzero;fill:url(#radial2);" d="M 10.171875 21.027344 L 8.1875 21.027344 L 8.1875 20.03125 L 10.171875 20.03125 Z M 10.171875 21.027344 "/>
<path style=" stroke:none;fill-rule:nonzero;fill:url(#radial3);" d="M 13.644531 21.027344 L 15.628906 21.027344 L 15.628906 22.019531 L 13.644531 22.019531 Z M 13.644531 21.027344 "/>
<path style=" stroke:none;fill-rule:nonzero;fill:url(#linear0);" d="M 10.171875 20.777344 L 13.644531 20.777344 L 13.644531 22.019531 L 10.171875 22.019531 Z M 10.171875 20.777344 "/>
<path style=" stroke:none;fill-rule:nonzero;fill:url(#linear1);" d="M 11.90625 2.171875 C 17.113281 2.171875 21.335938 6.390625 21.335938 11.597656 C 21.335938 16.804688 17.113281 21.027344 11.90625 21.027344 C 6.703125 21.027344 2.480469 16.804688 2.480469 11.597656 C 2.480469 6.390625 6.703125 2.171875 11.90625 2.171875 Z M 11.90625 2.171875 "/>
<path style=" stroke:none;fill-rule:nonzero;fill:rgb(0%,0%,0%);fill-opacity:0.196078;" d="M 11.90625 21.027344 C 6.683594 21.027344 2.480469 16.820312 2.480469 11.597656 C 2.480469 11.566406 2.480469 11.539062 2.480469 11.507812 C 2.53125 16.6875 6.714844 20.839844 11.90625 20.839844 C 17.097656 20.839844 21.285156 16.6875 21.332031 11.507812 C 21.332031 11.539062 21.335938 11.566406 21.335938 11.597656 C 21.335938 16.820312 17.128906 21.027344 11.90625 21.027344 Z M 11.90625 21.027344 "/>
<path style=" stroke:none;fill-rule:nonzero;fill:rgb(100%,100%,100%);fill-opacity:0.392157;" d="M 11.90625 2.171875 C 6.683594 2.171875 2.480469 6.375 2.480469 11.597656 C 2.480469 11.628906 2.480469 11.660156 2.480469 11.691406 C 2.53125 6.511719 6.714844 2.355469 11.90625 2.355469 C 17.097656 2.355469 21.285156 6.511719 21.332031 11.691406 C 21.332031 11.660156 21.335938 11.628906 21.335938 11.597656 C 21.335938 6.375 17.128906 2.171875 11.90625 2.171875 Z M 11.90625 2.171875 "/>
<path style=" stroke:none;fill-rule:nonzero;fill:rgb(12.941177%,12.941177%,12.941177%);fill-opacity:1;" d="M 11.90625 2.101562 C 6.648438 2.101562 2.410156 6.339844 2.410156 11.597656 C 2.410156 16.859375 6.648438 21.097656 11.90625 21.097656 C 17.167969 21.097656 21.40625 16.859375 21.40625 11.597656 C 21.40625 6.339844 17.167969 2.101562 11.90625 2.101562 Z M 11.90625 2.242188 C 17.09375 2.242188 21.265625 6.414062 21.265625 11.597656 C 21.265625 16.785156 17.09375 20.957031 11.90625 20.957031 C 6.722656 20.957031 2.550781 16.785156 2.550781 11.597656 C 2.550781 6.414062 6.722656 2.242188 11.90625 2.242188 Z M 11.90625 2.242188 "/>
<path style=" stroke:none;fill-rule:nonzero;fill:url(#linear2);" d="M 7.875 10.507812 C 7.402344 10.785156 7.238281 11.386719 7.511719 11.863281 L 8.503906 13.582031 L 6.355469 14.824219 C 6.121094 14.960938 6.039062 15.261719 6.175781 15.5 C 6.3125 15.738281 6.617188 15.820312 6.851562 15.683594 L 9.859375 13.945312 L 15.015625 10.96875 L 18.023438 9.234375 C 18.261719 9.097656 18.34375 8.792969 18.207031 8.554688 C 18.070312 8.316406 17.765625 8.238281 17.527344 8.375 L 15.378906 9.613281 L 14.386719 7.894531 C 14.113281 7.417969 13.507812 7.257812 13.03125 7.53125 Z M 7.875 10.507812 "/>
<path style=" stroke:none;fill-rule:nonzero;fill:rgb(100%,100%,100%);fill-opacity:0.235294;" d="M 13.550781 7.398438 C 13.375 7.394531 13.195312 7.4375 13.03125 7.53125 L 7.875 10.507812 C 7.5 10.726562 7.320312 11.152344 7.398438 11.558594 C 7.453125 11.289062 7.617188 11.039062 7.875 10.890625 L 13.03125 7.914062 C 13.507812 7.636719 14.113281 7.800781 14.386719 8.277344 L 15.378906 9.996094 L 17.527344 8.753906 C 17.765625 8.617188 18.070312 8.699219 18.207031 8.9375 C 18.21875 8.957031 18.226562 8.976562 18.234375 8.996094 C 18.292969 8.855469 18.289062 8.695312 18.207031 8.554688 C 18.070312 8.316406 17.765625 8.238281 17.527344 8.375 L 15.378906 9.613281 L 14.386719 7.894531 C 14.207031 7.582031 13.886719 7.40625 13.550781 7.398438 Z M 8.339844 13.679688 L 6.355469 14.824219 C 6.136719 14.949219 6.050781 15.214844 6.148438 15.441406 C 6.1875 15.347656 6.257812 15.261719 6.355469 15.203125 L 8.503906 13.964844 Z M 8.339844 13.679688 "/>
<path style=" stroke:none;fill-rule:nonzero;fill:rgb(0%,0%,0%);fill-opacity:0.235294;" d="M 18.160156 9.117188 C 18.125 9.164062 18.078125 9.203125 18.023438 9.234375 L 15.015625 10.96875 L 9.859375 13.945312 L 6.851562 15.683594 C 6.640625 15.808594 6.371094 15.753906 6.222656 15.566406 C 6.09375 15.722656 6.070312 15.945312 6.175781 16.128906 C 6.3125 16.367188 6.617188 16.449219 6.851562 16.3125 L 9.859375 14.574219 L 15.015625 11.597656 L 18.023438 9.863281 C 18.261719 9.726562 18.34375 9.421875 18.207031 9.183594 C 18.191406 9.160156 18.175781 9.140625 18.160156 9.117188 Z M 7.429688 11.683594 C 7.34375 11.941406 7.363281 12.238281 7.511719 12.492188 L 8.234375 13.742188 L 8.503906 13.582031 L 7.511719 11.863281 C 7.480469 11.804688 7.453125 11.746094 7.429688 11.683594 Z M 7.429688 11.683594 "/>
<path style="fill:none;stroke-width:3;stroke-linecap:round;stroke-linejoin:round;stroke:rgb(12.941177%,12.941177%,12.941177%);stroke-opacity:1;stroke-miterlimit:4;" d="M 167.983958 9.145262 C 157.901588 15.061364 154.401922 27.893471 160.234698 38.059167 L 181.399344 74.722333 L 135.570387 101.219803 C 130.570864 104.136191 128.821032 110.552245 131.73742 115.635093 C 134.653808 120.717941 141.153187 122.467773 146.15271 119.551385 L 210.313249 82.471593 L 320.302746 18.977656 L 384.463286 -18.018811 C 389.546134 -20.935199 391.295966 -27.434578 388.379578 -32.517426 C 385.46319 -37.600274 378.963811 -39.266782 373.880963 -36.350394 L 328.052006 -9.936249 L 306.88736 -46.599415 C 301.054584 -56.765111 288.139151 -60.181451 277.973455 -54.348675 Z M 167.983958 9.145262 " transform="matrix(0.0468795,0,0,0.0468795,0,10.079087)"/>
</g>
</svg>
